icon-themes/sifr_svg/cmd/sc_circlepie_unfilled.svg

<svg viewBox="0 0 16 16" xmlns="http://www.w3.org/2000/svg"><path d="m8 1a7 7 0 0 0 -7 7 7 7 0 0 0 7 7 7 7 0 0 0 7-7 7 7 0 0 0 -.1-1h-.9-5v-3.9-1.1-.921875a7 7 0 0 0 -1-.078125zm-1 2.1v5.9h2 3.9a5 5 0 0 1 -4.9 4 5 5 0 0 1 -5-5 5 5 0 0 1 4-4.9z" fill="#555753"/></svg>

<svg xmlns="http://www.w3.org/2000/svg" viewBox="0 0 16 16">
  <path
     style="fill:#555753"
     d="M 8,1 A 7,7 0 0 0 1,8 7,7 0 0 0 8,15 7,7 0 0 0 15,8 7,7 0 0 0 14.9,7 H 14 9 V 3.1 2 1.078125 A 7,7 0 0 0 8,1 Z M 7,3.1 V 9 h 2 3.9 A 5,5 0 0 1 8,13 5,5 0 0 1 3,8 5,5 0 0 1 7,3.1 Z"
     />
</svg>
